
;FLAVOR:Marlin
;TIME:0
;Filament used: 0m
;Layer height: 0
;MINX:0
;MINY:0
;MINZ:0
;MAXX:210
;MAXY:210
;MAXZ:250

; Time to print!!!!!
; GCode created with FullControl - tell us what you're printing!
; info@fullcontrol.xyz or tag FullControlXYZ on Twitter/Instagram/LinkedIn/Reddit/TikTok 

G28 ; home axes
M140 S0 ; set bed temp and continue
M105
M104 S0 ; set hotend temp and continue
M190 S0 ; set bed temp and wait
M105
M109 S0  ; set hotend temp and wait

; Align X Axis Gantry / Calibrate Dual Z Steppers
; Similar to M915: Mechanical Alignment
;G28 ; Home all axes
;G0 Z250 ; Go to Z Top Max
;M211 S0 ; Disable Software Endstops
;G91 ; Relative Positioning
;G0 Z10 ; Move up 10 mm to push into mechanical endstops and align stepper steps
;G0 Z-10 ; Move down 10 mm

G90 ; absolute coordinates
G21 ; set units to millimeters
M83 ; relative extrusion
M211 S1 ; Enable Software Endstops
G28 ; Home all axes
;G29 ; ABL - BLTouch
M18 S0 Z ; Prevents the idle disabling of the z-steppers

M220 S100 ; set speed factor override percentage
M221 S100 ; set extrude factor override percentage
G0 F8000 X5 Y5 Z10
G1 F250 E20.7876
G0 F250 Z50
G0 F8000 X10 Y10 Z0.3

G28 ; Homing
G29 ; Bed leveling
G1 Z10 F3000 ; Raise the Z-axis by 10mm at a speed of 3000 mm/min
M0 [attach syringe] ; 
M851 ; Homing and then Pro  be-Offset-Wizard

;-----
; END OF STARTING PROCEDURE
;-----

;-----
; START OF PRIMER PROCEDURE
;-----
G0 F8000 Y12 Z0.1
G1 F1000 X110 E3.326014
G1 Y14 E0.06652
G1 X10 E3.326014
G1 Y16 E0.06652
G1 X120 E3.658615
;G1 Y105 E2.960152
G1 Y105
;-----
; END OF PRIMER PROCEDURE
;-----

M207 S0.01 F30
M208 S0.1 F30
G1 X115 E0.166301
G1 X114.967061 Y105.735215 E0.024478
G1 X114.880173 Y106.465585 E0.024464
G1 X114.73987 Y107.187161 E0.024449
G1 X114.546975 Y107.896043 E0.024435
G1 X114.302594 Y108.588407 E0.02442
G1 X114.008112 Y109.26052 E0.024406
G1 X113.665183 Y109.908765 E0.024392
G1 X113.275721 Y110.52966 E0.024377
G1 X112.841891 Y111.119872 E0.024363
G1 X112.366096 Y111.67624 E0.024349
G1 X111.850962 Y112.195791 E0.024334
G1 X111.299327 Y112.675752 E0.02432
G1 X110.714222 Y113.113571 E0.024306
G1 X110.098855 Y113.506926 E0.024291
G1 X109.456597 Y113.853737 E0.024277
G1 X108.790958 Y114.152182 E0.024263
G1 X108.105572 Y114.4007 E0.024248
G1 X107.404175 Y114.598005 E0.024234
G1 X106.690586 Y114.743087 E0.02422
G1 X105.968685 Y114.835224 E0.024205
G1 X105.242393 Y114.873978 E0.024191
G1 X104.515648 Y114.859204 E0.024177
G1 X103.79239 Y114.791043 E0.024162
G1 X103.076531 Y114.66993 E0.024148
G1 X102.371942 Y114.496583 E0.024134
G1 X101.682425 Y114.272002 E0.024119
G1 X101.011697 Y113.997467 E0.024105
G1 X100.363371 Y113.674522 E0.024091
G1 X99.740932 Y113.304977 E0.024076
G1 X99.14772 Y112.890886 E0.024062
G1 X98.586914 Y112.434549 E0.024047
G1 X98.061515 Y111.938485 E0.024033
G1 X97.574325 Y111.405431 E0.024019
G1 X97.127939 Y110.838319 E0.024004
G1 X96.724725 Y110.24026 E0.02399
G1 X96.366818 Y109.614532 E0.023976
G1 X96.0561 Y108.964558 E0.023961
G1 X95.7942 Y108.293888 E0.023947
G1 X95.582477 Y107.60618 E0.023933
G1 X95.422019 Y106.905179 E0.023918
G1 X95.313632 Y106.194699 E0.023904
G1 X95.257843 Y105.478601 E0.02389
G1 X95.254889 Y104.760771 E0.023875
G1 X95.304724 Y104.045099 E0.023861
G1 X95.407014 Y103.335459 E0.023847
G1 X95.561141 Y102.635689 E0.023832
G1 X95.766209 Y101.949568 E0.023818
G1 X96.021046 Y101.280795 E0.023804
G1 X96.32421 Y100.632974 E0.023789
G1 X96.674002 Y100.009589 E0.023775
G1 X97.068469 Y99.413986 E0.023761
G1 X97.505422 Y98.849359 E0.023746
G1 X97.982442 Y98.318729 E0.023732
G1 X98.496896 Y97.82493 E0.023718
G1 X99.045952 Y97.370593 E0.023703
G1 X99.626594 Y96.95813 E0.023689
G1 X100.235638 Y96.589726 E0.023675
G1 X100.869751 Y96.267322 E0.02366
G1 X101.525466 Y95.992611 E0.023646
G1 X102.199206 Y95.767021 E0.023631
G1 X102.887299 Y95.591716 E0.023617
G1 X103.586 Y95.467584 E0.023603
G1 X104.29151 Y95.395236 E0.023588
G1 X105 Y95.375 E0.023574
G1 X105.707628 Y95.406923 E0.02356
G1 X106.410561 Y95.490768 E0.023545
G1 X107.104998 Y95.626018 E0.023531
G1 X107.787186 Y95.811878 E0.023517
G1 X108.453446 Y96.047278 E0.023502
G1 X109.100187 Y96.330884 E0.023488
G1 X109.723929 Y96.6611 E0.023474
G1 X110.321321 Y97.03608 E0.023459
G1 X110.88916 Y97.453739 E0.023445
G1 X111.424406 Y97.911761 E0.023431
G1 X111.924198 Y98.407615 E0.023416
G1 X112.385873 Y98.93857 E0.023402
G1 X112.806977 Y99.501707 E0.023388
G1 X113.185277 Y100.093934 E0.023373
G1 X113.518778 Y100.712008 E0.023359
G1 X113.805727 Y101.352549 E0.023345
G1 X114.044627 Y102.012059 E0.02333
G1 X114.234243 Y102.686943 E0.023316
G1 X114.373608 Y103.373525 E0.023302
G1 X114.46203 Y104.068071 E0.023287
G1 X114.499091 Y104.76681 E0.023273
G1 X114.484655 Y105.465951 E0.023258
G1 X114.418863 Y106.161706 E0.023244
G1 X114.302135 Y106.85031 E0.02323
G1 X114.135166 Y107.528041 E0.023215
G1 X113.918923 Y108.191242 E0.023201
G1 X113.654638 Y108.836337 E0.023187
G1 X113.343802 Y109.459855 E0.023172
G1 X112.988156 Y110.058444 E0.023158
G1 X112.589684 Y110.628893 E0.023144
G1 X112.150595 Y111.168146 E0.023129
G1 X111.67332 Y111.67332 E0.023115
G1 X111.160492 Y112.141722 E0.023101
G1 X110.614931 Y112.570858 E0.023086
G1 X110.039636 Y112.958455 E0.023072
G1 X109.437758 Y113.302462 E0.023058
G1 X108.812593 Y113.601071 E0.023043
G1 X108.167554 Y113.852721 E0.023029
G1 X107.506162 Y114.056107 E0.023015
G1 X106.83202 Y114.210187 E0.023
G1 X106.148795 Y114.314188 E0.022986
G1 X105.460201 Y114.367609 E0.022972
G1 X104.769974 Y114.370224 E0.022957
G1 X104.081855 Y114.322082 E0.022943
G1 X103.39957 Y114.223507 E0.022929
G1 X102.726807 Y114.075097 E0.022914
G1 X102.067198 Y113.877718 E0.0229
G1 X101.424302 Y113.632499 E0.022885
G1 X100.801579 Y113.340831 E0.022871
G1 X100.202377 Y113.00435 E0.022857
G1 X99.629914 Y112.624936 E0.022842
G1 X99.087256 Y112.204699 E0.022828
G1 X98.577307 Y111.745966 E0.022814
G1 X98.102787 Y111.251269 E0.022799
G1 X97.666223 Y110.723336 E0.022785
G1 X97.269931 Y110.165067 E0.022771
G1 X96.916008 Y109.579525 E0.022756
G1 X96.606318 Y108.969916 E0.022742
G1 X96.342483 Y108.339573 E0.022728
G1 X96.125874 Y107.691937 E0.022713
G1 X95.957604 Y107.030538 E0.022699
G1 X95.838525 Y106.358976 E0.022685
G1 X95.76922 Y105.680903 E0.02267
G1 X95.75 Y105 E0.022656
G1 X95.780907 Y104.319959 E0.022642
G1 X95.861709 Y103.644463 E0.022627
G1 X95.991906 Y102.977165 E0.022613
G1 X96.17073 Y102.32167 E0.022599
G1 X96.39715 Y101.681515 E0.022584
G1 X96.66988 Y101.060147 E0.02257
G1 X96.987382 Y100.460908 E0.022556
G1 X97.347881 Y99.887018 E0.022541
G1 X97.749369 Y99.341552 E0.022527
G1 X98.189617 Y98.827429 E0.022512
G1 X98.666193 Y98.347394 E0.022498
G1 X99.176468 Y97.904006 E0.022484
G1 X99.717635 Y97.499617 E0.022469
G1 X100.286722 Y97.136371 E0.022455
G1 X100.880612 Y96.816181 E0.022441
G1 X101.496055 Y96.540728 E0.022426
G1 X102.12969 Y96.311446 E0.022412
G1 X102.77806 Y96.129519 E0.022398
G1 X103.437635 Y95.995871 E0.022383
G1 X104.104828 Y95.911164 E0.022369
G1 X104.776013 Y95.875796 E0.022355
G1 X105.447551 Y95.889893 E0.02234
G1 X106.115802 Y95.953316 E0.022326
G1 X106.777151 Y96.065659 E0.022312
G1 X107.428024 Y96.22625 E0.022297
G1 X108.064908 Y96.434156 E0.022283
G1 X108.684372 Y96.688191 E0.022269
G1 X109.283081 Y96.986919 E0.022254
G1 X109.85782 Y97.328664 E0.02224
G1 X110.405506 Y97.711519 E0.022226
G1 X110.923206 Y98.133358 E0.022211
G1 X111.408155 Y98.591845 E0.022197
G1 X111.857768 Y99.084448 E0.022183
G1 X112.269656 Y99.608456 E0.022168
G1 X112.641634 Y100.160988 E0.022154
G1 X112.971741 Y100.739015 E0.02214
G1 X113.258242 Y101.339373 E0.022125
G1 X113.499642 Y101.958779 E0.022111
G1 X113.694691 Y102.593855 E0.022096
G1 X113.842392 Y103.241139 E0.022082
G1 X113.942008 Y103.897109 E0.022068
G1 X113.993061 Y104.558199 E0.022053
G1 X113.995337 Y105.220823 E0.022039
G1 X113.948888 Y105.881389 E0.022025
G1 X113.854028 Y106.53632 E0.02201
G1 X113.711335 Y107.182076 E0.021996
G1 X113.521645 Y107.815171 E0.021982
G1 X113.286045 Y108.432192 E0.021967
G1 X113.005872 Y109.029817 E0.021953
G1 X112.682702 Y109.604834 E0.021939
G1 X112.318342 Y110.154158 E0.021924
G1 X111.91482 Y110.674846 E0.02191
G1 X111.474373 Y111.164115 E0.021896
G1 X110.999435 Y111.619356 E0.021881
G1 X110.492624 Y112.038148 E0.021867
G1 X109.956728 Y112.418268 E0.021853
G1 X109.394688 Y112.757709 E0.021838
G1 X108.809583 Y113.054686 E0.021824
G1 X108.204612 Y113.307645 E0.02181
G1 X107.58308 Y113.515274 E0.021795
G1 X106.948375 Y113.676507 E0.021781
G1 X106.303952 Y113.790533 E0.021767
G1 X105.653317 Y113.856796 E0.021752
G1 X105 Y113.875 E0.021738
G1 X104.347546 Y113.845109 E0.021723
G1 X103.699487 Y113.76735 E0.021709
G1 X103.059328 Y113.642205 E0.021695
G1 X102.430527 Y113.470417 E0.02168
G1 X101.816475 Y113.252977 E0.021666
G1 X101.22048 Y112.991124 E0.021652
G1 X100.645745 Y112.686335 E0.021637
G1 X100.095357 Y112.340318 E0.021623
G1 X99.572263 Y111.955002 E0.021609
G1 X99.079263 Y111.532526 E0.021594
G1 X98.618987 Y111.075229 E0.02158
G1 X98.193885 Y110.585635 E0.021566
G1 X97.806212 Y110.066437 E0.021551
G1 X97.458019 Y109.520489 E0.021537
G1 X97.15114 Y108.950784 E0.021523
G1 X96.887183 Y108.360439 E0.021508
G1 X96.667519 Y107.75268 E0.021494
G1 X96.493281 Y107.130822 E0.02148
G1 X96.36535 Y106.498254 E0.021465
G1 X96.284359 Y105.858416 E0.021451
G1 X96.250683 Y105.214784 E0.021437
G1 X96.264441 Y104.57085 E0.021422
G1 X96.325496 Y103.930102 E0.021408
G1 X96.433454 Y103.296008 E0.021394
G1 X96.587666 Y102.671994 E0.021379
G1 X96.787235 Y102.061426 E0.021365
G1 X97.031019 Y101.467594 E0.02135
G1 X97.317639 Y100.893692 E0.021336
G1 X97.645484 Y100.342804 E0.021322
G1 X98.012722 Y99.817881 E0.021307
G1 X98.417311 Y99.321734 E0.021293
G1 X98.85701 Y98.85701 E0.021279
G1 X99.329388 Y98.426185 E0.021264
G1 X99.831843 Y98.031547 E0.02125
G1 X100.361612 Y97.675186 E0.021236
G1 X100.915789 Y97.358979 E0.021221
G1 X101.491338 Y97.084586 E0.021207
G1 X102.085113 Y96.853437 E0.021193
G1 X102.693872 Y96.666725 E0.021178
G1 X103.314298 Y96.525402 E0.021164
G1 X103.943013 Y96.430172 E0.02115
G1 X104.5766 Y96.381488 E0.021135
G1 X105.21162 Y96.37955 E0.021121
G1 X105.844632 Y96.424307 E0.021107
G1 X106.472209 Y96.515451 E0.021092
G1 X107.090958 Y96.652426 E0.021078
G1 X107.69754 Y96.834429 E0.021064
G1 X108.288686 Y97.06041 E0.021049
G1 X108.861213 Y97.329087 E0.021035
G1 X109.412046 Y97.638946 E0.021021
G1 X109.93823 Y97.988252 E0.021006
G1 X110.436949 Y98.375059 E0.020992
G1 X110.905538 Y98.79722 E0.020978
G1 X111.3415 Y99.2524 E0.020963
G1 X111.742518 Y99.738088 E0.020949
G1 X112.106467 Y100.251611 E0.020934
G1 X112.431427 Y100.790149 E0.02092
G1 X112.71569 Y101.35075 E0.020906
G1 X112.957773 Y101.930348 E0.020891
G1 X113.156421 Y102.525777 E0.020877
G1 X113.310619 Y103.133788 E0.020863
G1 X113.419592 Y103.751071 E0.020848
G1 X113.482812 Y104.37427 E0.020834
G1 X113.5 Y105 E0.02082
G1 X113.471125 Y105.624868 E0.020805
G1 X113.396408 Y106.24549 E0.020791
G1 X113.276317 Y106.858509 E0.020777
G1 X113.111565 Y107.460616 E0.020762
G1 X112.903105 Y108.048564 E0.020748
G1 X112.652128 Y108.619187 E0.020734
G1 X112.360052 Y109.169418 E0.020719
G1 X112.028517 Y109.696305 E0.020705
G1 X111.659372 Y110.197025 E0.020691
G1 X111.254669 Y110.668902 E0.020676
G1 X110.816652 Y111.10942 E0.020662
G1 X110.347737 Y111.516237 E0.020648
G1 X109.850509 Y111.887194 E0.020633
G1 X109.327701 Y112.220333 E0.020619
G1 X108.78218 Y112.513901 E0.020605
G1 X108.216933 Y112.766362 E0.02059
G1 X107.635049 Y112.976408 E0.020576
G1 X107.039705 Y113.142958 E0.020561
G1 X106.434143 Y113.265171 E0.020547
G1 X105.821659 Y113.342447 E0.020533
G1 X105.205581 Y113.37443 E0.020518
G1 X104.58925 Y113.36101 E0.020504
G1 X103.976006 Y113.302324 E0.02049
G1 X103.369167 Y113.198752 E0.020475
G1 X102.772011 Y113.050918 E0.020461
G1 X102.187759 Y112.859686 E0.020447
G1 X101.619559 Y112.626152 E0.020432
G1 X101.070466 Y112.351641 E0.020418
G1 X100.543428 Y112.037696 E0.020404
G1 X100.041269 Y111.686075 E0.020389
G1 X99.566674 Y111.298735 E0.020375
G1 X99.122175 Y110.877825 E0.020361
G1 X98.710138 Y110.425672 E0.020346
G1 X98.33275 Y109.94477 E0.020332
G1 X97.992006 Y109.437763 E0.020318
G1 X97.6897 Y108.907437 E0.020303
G1 X97.427415 Y108.356696 E0.020289
G1 X97.206516 Y107.788553 E0.020275
G1 X97.028141 Y107.20611 E0.02026
G1 X96.893197 Y106.612543 E0.020246
G1 X96.802352 Y106.011083 E0.020232
G1 X96.756036 Y105.405 E0.020217
G1 X96.754437 Y104.797583 E0.020203
G1 X96.797501 Y104.192124 E0.020189
G1 X96.88493 Y103.591902 E0.020174
G1 X97.016188 Y103.000159 E0.02016
G1 X97.190502 Y102.42009 E0.020145
G1 X97.406865 Y101.854821 E0.020131
G1 X97.664047 Y101.307391 E0.020117
G1 X97.960594 Y100.780743 E0.020102
G1 X98.294846 Y100.277698 E0.020088
G1 X98.664938 Y99.800949 E0.020074
G1 X99.068812 Y99.35304 E0.020059
G1 X99.504234 Y98.936357 E0.020045
G1 X99.968799 Y98.553112 E0.020031
G1 X100.45995 Y98.205334 E0.020016
G1 X100.974986 Y97.894856 E0.020002
G1 X101.511084 Y97.623306 E0.019988
G1 X102.065309 Y97.3921 E0.019973
G1 X102.634633 Y97.202431 E0.019959
G1 X103.215951 Y97.055269 E0.019945
G1 X103.806095 Y96.951349 E0.01993
G1 X104.401857 Y96.891172 E0.019916
G1 X105 Y96.875 E0.019902
G1 X105.597281 Y96.902859 E0.019887
G1 X106.190466 Y96.974533 E0.019873
G1 X106.776346 Y97.089571 E0.019859
G1 X107.351759 Y97.247288 E0.019844
G1 X107.913603 Y97.446767 E0.01983
G1 X108.458854 Y97.686868 E0.019816
G1 X108.984581 Y97.96623 E0.019801
G1 X109.487966 Y98.283285 E0.019787
G1 X109.966313 Y98.636258 E0.019772
G1 X110.417067 Y99.023187 E0.019758
G1 X110.837828 Y99.441926 E0.019744
G1 X111.226358 Y99.89016 E0.019729
G1 X111.5806 Y100.365419 E0.019715
G1 X111.898684 Y100.865088 E0.019701
G1 X112.178941 Y101.386425 E0.019686
G1 X112.419907 Y101.926574 E0.019672
G1 X112.620335 Y102.482582 E0.019658
G1 X112.779196 Y103.051413 E0.019643
G1 X112.895692 Y103.629968 E0.019629
G1 X112.969253 Y104.215097 E0.019615
G1 X112.999543 Y104.803622 E0.0196
G1 X112.986462 Y105.39235 E0.019586
G1 X112.930144 Y105.97809 E0.019572
G1 X112.830957 Y106.557674 E0.019557
G1 X112.689502 Y107.127972 E0.019543
G1 X112.506607 Y107.685907 E0.019529
G1 X112.283323 Y108.228475 E0.019514
G1 X112.02092 Y108.75276 E0.0195
G1 X111.720876 Y109.255948 E0.019486
G1 X111.384872 Y109.735344 E0.019471
G1 X111.014782 Y110.188387 E0.019457
G1 X110.61266 Y110.61266 E0.019443
G1 X110.180732 Y111.005908 E0.019428
G1 X109.721382 Y111.366047 E0.019414
G1 X109.237139 Y111.691174 E0.019399
G1 X108.730663 Y111.97958 E0.019385
G1 X108.204731 Y112.229756 E0.019371
G1 X107.662219 Y112.440405 E0.019356
G1 X107.106093 Y112.610443 E0.019342
G1 X106.539385 Y112.739009 E0.019328
G1 X105.965179 Y112.825469 E0.019313
G1 X105.3866 Y112.869416 E0.019299
G1 X104.806786 Y112.870676 E0.019285
G1 X104.228881 Y112.829305 E0.01927
G1 X103.656012 Y112.745591 E0.019256
G1 X103.091277 Y112.62005 E0.019242
G1 X102.537721 Y112.453425 E0.019227
G1 X101.998327 Y112.24668 E0.019213
G1 X101.475996 Y112.000994 E0.019199
G1 X100.973531 Y111.717757 E0.019184
G1 X100.493626 Y111.398559 E0.01917
G1 X100.038846 Y111.045183 E0.019156
G1 X99.611618 Y110.659595 E0.019141
G1 X99.214214 Y110.243931 E0.019127
G1 X98.848742 Y109.800489 E0.019113
G1 X98.517135 Y109.331712 E0.019098
G1 X98.221139 Y108.840178 E0.019084
G1 X97.962302 Y108.328583 E0.01907
G1 X97.741972 Y107.79973 E0.019055
G1 X97.561284 Y107.25651 E0.019041
G1 X97.421157 Y106.701886 E0.019027
G1 X97.32229 Y106.138881 E0.019012
G1 X97.265155 Y105.570556 E0.018998
G1 X97.25 Y105 E0.018983
G1 X97.276842 Y104.430306 E0.018969
G1 X97.345474 Y103.864558 E0.018955
G1 X97.45546 Y103.305817 E0.01894
G1 X97.606141 Y102.757097 E0.018926
G1 X97.79664 Y102.221357 E0.018912
G1 X98.025864 Y101.701479 E0.018897
G1 X98.292513 Y101.200256 E0.018883
G1 X98.595086 Y100.720373 E0.018869
G1 X98.931888 Y100.264399 E0.018854
G1 X99.301044 Y99.834767 E0.01884
G1 X99.700504 Y99.433765 E0.018826
G1 X100.128058 Y99.063521 E0.018811
G1 X100.581347 Y98.725995 E0.018797
G1 X101.057876 Y98.422964 E0.018783
G1 X101.555029 Y98.156018 E0.018768
G1 X102.07008 Y97.926547 E0.018754
